material/.icons/material/table-furniture.svg

<svg xmlns="http://www.w3.org/2000/svg" viewBox="0 0 24 24"><path d="M2 7h20v3h-2l1 9h-2.5l-.56-5H6.06l-.56 5H3l1-9H2V7m15.5 3h-11l-.21 2h11.42l-.21-2z"/></svg>

<?xml version="1.0" encoding="UTF-8"?><!DOCTYPE svg PUBLIC "-//W3C//DTD SVG 1.1//EN" "http://www.w3.org/Graphics/SVG/1.1/DTD/svg11.dtd"><svg xmlns="http://www.w3.org/2000/svg" xmlns:xlink="http://www.w3.org/1999/xlink" version="1.1" id="mdi-table-furniture" width="24" height="24" viewBox="0 0 24 24"><path d="M2 7H22V10H20L21 19H18.5L17.94 14H6.06L5.5 19H3L4 10H2V7M17.5 10H6.5L6.29 12H17.71L17.5 10Z" /></svg>
